flaticon/essential/skip.svg

<svg xmlns="http://www.w3.org/2000/svg" width="32" height="32" viewBox="0 0 24 24">
    <path d="M 15.023438 11.667969 L 6.226562 5.667969 C 6.101562 5.585938 5.945312 5.578125 5.8125 5.644531 C 5.683594 5.714844 5.601562 5.851562 5.601562 6 L 5.601562 18 C 5.601562 18.148438 5.683594 18.285156 5.8125 18.355469 C 5.871094 18.386719 5.9375 18.398438 6 18.398438 C 6.078125 18.398438 6.15625 18.375 6.226562 18.332031 L 15.023438 12.332031 C 15.132812 12.257812 15.199219 12.132812 15.199219 12 C 15.199219 11.867188 15.132812 11.742188 15.023438 11.667969 Z M 6.398438 17.242188 L 6.398438 6.757812 L 14.089844 12 Z M 6.398438 17.242188"/>
    <path d="M 12 0 C 5.382812 0 0 5.382812 0 12 C 0 18.617188 5.382812 24 12 24 C 18.617188 24 24 18.617188 24 12 C 24 5.382812 18.617188 0 12 0 Z M 12 23.199219 C 5.824219 23.199219 0.800781 18.175781 0.800781 12 C 0.800781 5.824219 5.824219 0.800781 12 0.800781 C 18.175781 0.800781 23.199219 5.824219 23.199219 12 C 23.199219 18.175781 18.175781 23.199219 12 23.199219 Z M 12 23.199219"/>
    <path d="M 16 18.398438 L 18.800781 18.398438 L 18.800781 5.601562 L 16 5.601562 Z M 16.800781 6.398438 L 18 6.398438 L 18 17.601562 L 16.800781 17.601562 Z M 16.800781 6.398438"/>
</svg>

<svg xmlns="http://www.w3.org/2000/svg" width="32" height="32" viewBox="0 0 24 24">
    <path d="M15.023 11.668l-8.796-6a.414.414 0 0 0-.415-.023.406.406 0 0 0-.21.355v12c0 .148.082.285.21.355a.4.4 0 0 0 .188.043.436.436 0 0 0 .227-.066l8.796-6a.402.402 0 0 0 0-.664zm-8.625 5.574V6.758L14.09 12zm0 0"/>
    <path d="M12 0C5.383 0 0 5.383 0 12s5.383 12 12 12 12-5.383 12-12S18.617 0 12 0zm0 23.2C5.824 23.2.8 18.175.8 12 .8 5.824 5.825.8 12 .8 18.176.8 23.2 5.825 23.2 12c0 6.176-5.024 11.2-11.2 11.2zm0 0"/>
    <path d="M16 18.398h2.8V5.602H16zm.8-12H18v11.204h-1.2zm0 0"/>
</svg>
